X:23
T:Brennan's
R:jig
Z:variation of id:hn-jig-296 as played in Ottawa
M:6/8
K:D
~F3 FED|FAF FEF|DFA dAF|A,CE GFE|\
~F3 FED|FAF FEF|DFA dAF|[1 A,CE D2E:|[2 A,CE D2g||
fed edc|dcB AFA|fed edc|dfb a2g|\
fed edc|dcB AFA|DFA dAF|A,CE D2e:|
